web/src/lib/icons/camera.svg

<svg xmlns="http://www.w3.org/2000/svg" viewBox="0 0 348 302"><g fill="none" stroke-width="2"><path stroke="#7eb8f2" d="M308.27 123.57q-26.42-5.55-52.74-10.71-5.67-1.11-7.85-.66c-5.86 1.22-10.15 4.54-11.28 11.02q-7.35 41.82-16.1 81.84c-2.05 9.35-3.41 17.08-5.65 27.52q-5.86 27.32-6.82 33.69-.83 5.46 4.34 10.37" vector-effect="non-scaling-stroke"/><path stroke="#7f5ab9" d="M29.67 64.83q5.85-4.71 11.08-4.87 12.02-.37 49.78-.26" vector-effect="non-scaling-stroke"/><path stroke="#7dbcfd" d="M78.85 204.95c4.84 7.89 10.88 15.57 18.13 20.66 8.58 6.04 18.29 11.3 28.73 13.21q12.55 2.28 22.78 1.17 23.41-2.55 41.1-18.86 2.82-2.6 7.94-9.05 5.14-6.48 6.94-9.83 3.94-7.29 6.55-15.57 2.86-9.05 3.38-16.53 1.13-16.05-2.86-28.97-8.6-27.9-34.3-42.6c-24.2-13.83-52.62-11.78-75.84 3.27-34.61 22.43-43.63 68.7-22.55 103.1" vector-effect="non-scaling-stroke"/><path stroke="#8b93ab" d="M134.207 112.586a52.76 52.57-97.2 0 0-45.542 58.933 52.76 52.57-97.2 0 0 58.768 45.755 52.76 52.57-97.2 0 0 45.543-58.933 52.76 52.57-97.2 0 0-58.769-45.755" vector-effect="non-scaling-stroke"/><path stroke="#8b93ab" d="M122.887 134.887a14.28 14.1-102.1 0 0-10.794 16.919 14.28 14.1-102.1 0 0 16.78 11.007 14.28 14.1-102.1 0 0 10.794-16.919 14.28 14.1-102.1 0 0-16.78-11.007" vector-effect="non-scaling-stroke"/><path stroke="#87d281" d="m276.92 207.67-7.16 38.28a.5.5 0 0 1-.96.1q-5.4-13.59-17.4-20.69-4.4-2.61-9.19-2.35c-3.96.21-5.8 1.89-6.91 5.51-2.43 7.96.02 13.8 4.65 20.54 5.19 7.56 14.55 11.76 23.36 13.52.59.12 1.94-.07 2.7.18a.65.65 0 0 1 .44.71c-.4 2.65-2.36 7.18.27 9.49 2.3 2.01 5.66.51 6.36-2.15q.43-1.65 1.02-5.61a.79.79 0 0 1 1.08-.61c12.62 5.11 29.15.93 38.17-9.25 4.84-5.47 7.69-16.46-1.99-19.24-10.92-3.14-22.92 2.28-30.38 10.14q-1.45 1.53-2.6 2.39a.4.4 0 0 1-.63-.39l6.83-38.48" vector-effect="non-scaling-stroke"/><path stroke="#fd93ad" d="M284.58 209.76q4.34 5.98 10.57 7.29c6.57 1.38 12.63-1.92 15.48-7.74q4.33-8.83-1.14-17.54a.3.3 0 0 1 .22-.46q13.04-1.58 14.97-13.05c1.94-11.53-8.86-17.47-18.67-15.56a.67.67 0 0 1-.73-.95c3.93-8.19-2-17.11-9.81-19.65q-3.53-1.15-8.43-.1c-6.32 1.37-10.14 7.81-10.44 14.01a.24.24 0 0 1-.38.18c-6.46-4.89-16.71-4.39-21.25 2.44q-5.77 8.69-1.4 17.18c.93 1.81 2.74 3.79 4.61 5.86a.56.56 0 0 1-.04.8c-9.4 8.35-8.85 21.67 2.96 27.17q6.95 3.23 15.82-1.97" vector-effect="non-scaling-stroke"/><path stroke="#887448" d="m284.58 209.76-2.31-4.71a1.21 1.21 0 0 0-1.88-.38l-3.47 3" vector-effect="non-scaling-stroke"/><path stroke="#fe7b3b" d="M283.617 167.931a12.17 11.61-103.8 0 0-8.372 14.588 12.17 11.61-103.8 0 0 14.178 9.05 12.17 11.61-103.8 0 0 8.372-14.588 12.17 11.61-103.8 0 0-14.178-9.05" vector-effect="non-scaling-stroke"/></g><path fill="#007efe" d="M308.27 123.57q-26.42-5.55-52.74-10.71-5.67-1.11-7.85-.66c-5.86 1.22-10.15 4.54-11.28 11.02q-7.35 41.82-16.1 81.84c-2.05 9.35-3.41 17.08-5.65 27.52q-5.86 27.32-6.82 33.69-.83 5.46 4.34 10.37-84.25.04-168.16-.03l-4.52.11c-14.01.34-25.88-7.4-30.53-20.67q-1.24-3.54-1.28-12.36-.29-59.1-.88-117.93-.09-8.68-.04-27.06c.03-7.78.91-12.99 5.2-18.61 2.94-3.84 9.5-7.63 12.84-10.53q1.15-.99 4.87-4.73 5.85-4.71 11.08-4.87 12.02-.37 49.78-.26l10.98-.16a6.08 6.05-56.5 0 0 2.29-.47c5.42-2.26 8.59-5.7 10.93-12q1.17-3.16 3.39-7.59c2.88-5.78 6.15-13.2 8.19-18.53 2.6-6.82 7.22-10.8 13.59-13.19q3.38-1.27 11.31-1.01 3.66.12 43.97-.18 9.06-.06 12.57 1.4c6.58 2.75 10.42 6.71 13.27 13.98q1.15 2.94 12.91 27.39c3.87 8.03 9.63 9.5 18.65 9.32q.45-.01 27.09.01c10.46.01 17.43 1.37 23.56 9.13 4.96 6.26 4.82 11.2 4.89 20.32q.13 17.62.15 35.45M78.85 204.95c4.84 7.89 10.88 15.57 18.13 20.66 8.58 6.04 18.29 11.3 28.73 13.21q12.55 2.28 22.78 1.17 23.41-2.55 41.1-18.86 2.82-2.6 7.94-9.05 5.14-6.48 6.94-9.83 3.94-7.29 6.55-15.57 2.86-9.05 3.38-16.53 1.13-16.05-2.86-28.97-8.6-27.9-34.3-42.6c-24.2-13.83-52.62-11.78-75.84 3.27-34.61 22.43-43.63 68.7-22.55 103.1"/><path fill="#fd3574" d="M90.53 59.7q-37.76-.11-49.78.26-5.23.16-11.08 4.87c-1.3-6.26-.36-13.72-.49-18.63q-.13-5.47 1.26-8.2c3.47-6.75 8.93-8.38 16.75-8.03q.8.04 30.56 0c5.4-.01 9.64 3.35 12.01 7.82q1.25 2.37 1.11 9.09-.14 6.27-.34 12.82"/><path fill="#fafafb" d="M96.98 225.61c-7.25-5.09-13.29-12.77-18.13-20.66-21.08-34.4-12.06-80.67 22.55-103.1 23.22-15.05 51.64-17.1 75.84-3.27q25.7 14.7 34.3 42.6 3.99 12.92 2.86 28.97-.52 7.48-3.38 16.53-2.61 8.28-6.55 15.57-1.8 3.35-6.94 9.83-5.12 6.45-7.94 9.05-17.69 16.31-41.1 18.86-10.23 1.11-22.78-1.17c-10.44-1.91-20.15-7.17-28.73-13.21m37.227-113.024a52.76 52.57-97.2 0 0-45.542 58.933 52.76 52.57-97.2 0 0 58.768 45.755 52.76 52.57-97.2 0 0 45.543-58.933 52.76 52.57-97.2 0 0-58.769-45.755"/><path fill="#1c2b5b" d="M134.207 112.586a52.76 52.57-97.2 0 1 58.769 45.755 52.76 52.57-97.2 0 1-45.543 58.933 52.76 52.57-97.2 0 1-58.768-45.755 52.76 52.57-97.2 0 1 45.542-58.933m-11.32 22.301a14.28 14.1-102.1 0 0-10.794 16.919 14.28 14.1-102.1 0 0 16.78 11.007 14.28 14.1-102.1 0 0 10.794-16.919 14.28 14.1-102.1 0 0-16.78-11.007"/><path fill="#fcf1e5" d="M308.27 123.57q20.54 3.51 39.73 9.26v57.41q-.77 6.36-1.15 8.37-2.01 10.59-16.51 86.22c-1.58 8.25-4.81 13.78-14.15 13.64q-4.94-.07-8.92-.95-40.41-8.89-80.03-17.15-3.71-.78-7.56-1.78-3.84-1-7.51-1.95-5.17-4.91-4.34-10.37.96-6.37 6.82-33.69c2.24-10.44 3.6-18.17 5.65-27.52q8.75-40.02 16.1-81.84c1.13-6.48 5.42-9.8 11.28-11.02q2.18-.45 7.85.66 26.32 5.16 52.74 10.71m-31.35 84.1-7.16 38.28a.5.5 0 0 1-.96.1q-5.4-13.59-17.4-20.69-4.4-2.61-9.19-2.35c-3.96.21-5.8 1.89-6.91 5.51-2.43 7.96.02 13.8 4.65 20.54 5.19 7.56 14.55 11.76 23.36 13.52.59.12 1.94-.07 2.7.18a.65.65 0 0 1 .44.71c-.4 2.65-2.36 7.18.27 9.49 2.3 2.01 5.66.51 6.36-2.15q.43-1.65 1.02-5.61a.79.79 0 0 1 1.08-.61c12.62 5.11 29.15.93 38.17-9.25 4.84-5.47 7.69-16.46-1.99-19.24-10.92-3.14-22.92 2.28-30.38 10.14q-1.45 1.53-2.6 2.39a.4.4 0 0 1-.63-.39l6.83-38.48q4.34 5.98 10.57 7.29c6.57 1.38 12.63-1.92 15.48-7.74q4.33-8.83-1.14-17.54a.3.3 0 0 1 .22-.46q13.04-1.58 14.97-13.05c1.94-11.53-8.86-17.47-18.67-15.56a.67.67 0 0 1-.73-.95c3.93-8.19-2-17.11-9.81-19.65q-3.53-1.15-8.43-.1c-6.32 1.37-10.14 7.81-10.44 14.01a.24.24 0 0 1-.38.18c-6.46-4.89-16.71-4.39-21.25 2.44q-5.77 8.69-1.4 17.18c.93 1.81 2.74 3.79 4.61 5.86a.56.56 0 0 1-.04.8c-9.4 8.35-8.85 21.67 2.96 27.17q6.95 3.23 15.82-1.97"/><ellipse fill="#fafafb" rx="14.28" ry="14.1" transform="rotate(257.9 123.1 23.548)"/><path fill="#fd3574" d="m284.58 209.76-2.31-4.71a1.21 1.21 0 0 0-1.88-.38l-3.47 3q-8.87 5.2-15.82 1.97c-11.81-5.5-12.36-18.82-2.96-27.17a.56.56 0 0 0 .04-.8c-1.87-2.07-3.68-4.05-4.61-5.86q-4.37-8.49 1.4-17.18c4.54-6.83 14.79-7.33 21.25-2.44a.24.24 0 0 0 .38-.18c.3-6.2 4.12-12.64 10.44-14.01q4.9-1.05 8.43.1c7.81 2.54 13.74 11.46 9.81 19.65a.67.67 0 0 0 .73.95c9.81-1.91 20.61 4.03 18.67 15.56q-1.93 11.47-14.97 13.05a.3.3 0 0 0-.22.46q5.47 8.71 1.14 17.54c-2.85 5.82-8.91 9.12-15.48 7.74q-6.23-1.31-10.57-7.29m-.963-41.829a12.17 11.61-103.8 0 0-8.372 14.588 12.17 11.61-103.8 0 0 14.178 9.05 12.17 11.61-103.8 0 0 8.372-14.588 12.17 11.61-103.8 0 0-14.178-9.05"/><ellipse fill="#fec101" rx="12.17" ry="11.61" transform="rotate(256.2 213.731 -22.455)"/><path fill="#12b31c" d="m284.58 209.76-6.83 38.48a.4.4 0 0 0 .63.39q1.15-.86 2.6-2.39c7.46-7.86 19.46-13.28 30.38-10.14 9.68 2.78 6.83 13.77 1.99 19.24-9.02 10.18-25.55 14.36-38.17 9.25a.79.79 0 0 0-1.08.61q-.59 3.96-1.02 5.61c-.7 2.66-4.06 4.16-6.36 2.15-2.63-2.31-.67-6.84-.27-9.49a.65.65 0 0 0-.44-.71c-.76-.25-2.11-.06-2.7-.18-8.81-1.76-18.17-5.96-23.36-13.52-4.63-6.74-7.08-12.58-4.65-20.54 1.11-3.62 2.95-5.3 6.91-5.51q4.79-.26 9.19 2.35 12 7.1 17.4 20.69a.5.5 0 0 0 .96-.1l7.16-38.28 3.47-3a1.21 1.21 0 0 1 1.88.38z"/></svg>

<svg xmlns="http://www.w3.org/2000/svg" version="1.1" viewBox="0.00 0.00 348.00 302.00">
<g stroke-width="2.00" fill="none" stroke-linecap="butt">
<path stroke="#7eb8f2" vector-effect="non-scaling-stroke" d="
  M 308.27 123.57
  Q 281.85 118.02 255.53 112.86
  Q 249.86 111.75 247.68 112.20
  C 241.82 113.42 237.53 116.74 236.40 123.22
  Q 229.05 165.04 220.30 205.06
  C 218.25 214.41 216.89 222.14 214.65 232.58
  Q 208.79 259.90 207.83 266.27
  Q 207.00 271.73 212.17 276.64"
/>
<path stroke="#7f5ab9" vector-effect="non-scaling-stroke" d="
  M 29.67 64.83
  Q 35.52 60.12 40.75 59.96
  Q 52.77 59.59 90.53 59.70"
/>
<path stroke="#7dbcfd" vector-effect="non-scaling-stroke" d="
  M 78.85 204.95
  C 83.69 212.84 89.73 220.52 96.98 225.61
  C 105.56 231.65 115.27 236.91 125.71 238.82
  Q 138.26 241.10 148.49 239.99
  Q 171.90 237.44 189.59 221.13
  Q 192.41 218.53 197.53 212.08
  Q 202.67 205.60 204.47 202.25
  Q 208.41 194.96 211.02 186.68
  Q 213.88 177.63 214.40 170.15
  Q 215.53 154.10 211.54 141.18
  Q 202.94 113.28 177.24 98.58
  C 153.04 84.75 124.62 86.80 101.40 101.85
  C 66.79 124.28 57.77 170.55 78.85 204.95"
/>
<path stroke="#8b93ab" vector-effect="non-scaling-stroke" d="
  M 134.2074 112.5860
  A 52.76 52.57 -97.2 0 0 88.6645 171.5188
  A 52.76 52.57 -97.2 0 0 147.4326 217.2740
  A 52.76 52.57 -97.2 0 0 192.9755 158.3412
  A 52.76 52.57 -97.2 0 0 134.2074 112.5860"
/>
<path stroke="#8b93ab" vector-effect="non-scaling-stroke" d="
  M 122.8866 134.8873
  A 14.28 14.10 -102.1 0 0 112.0933 151.8056
  A 14.28 14.10 -102.1 0 0 128.8734 162.8127
  A 14.28 14.10 -102.1 0 0 139.6667 145.8944
  A 14.28 14.10 -102.1 0 0 122.8866 134.8873"
/>
<path stroke="#87d281" vector-effect="non-scaling-stroke" d="
  M 276.92 207.67
  L 269.76 245.95
  A 0.50 0.50 0.0 0 1 268.80 246.05
  Q 263.40 232.46 251.40 225.36
  Q 247.00 222.75 242.21 223.01
  C 238.25 223.22 236.41 224.90 235.30 228.52
  C 232.87 236.48 235.32 242.32 239.95 249.06
  C 245.14 256.62 254.50 260.82 263.31 262.58
  C 263.90 262.70 265.25 262.51 266.01 262.76
  A 0.65 0.65 0.0 0 1 266.45 263.47
  C 266.05 266.12 264.09 270.65 266.72 272.96
  C 269.02 274.97 272.38 273.47 273.08 270.81
  Q 273.51 269.16 274.10 265.20
  A 0.79 0.79 0.0 0 1 275.18 264.59
  C 287.80 269.70 304.33 265.52 313.35 255.34
  C 318.19 249.87 321.04 238.88 311.36 236.10
  C 300.44 232.96 288.44 238.38 280.98 246.24
  Q 279.53 247.77 278.38 248.63
  A 0.40 0.40 0.0 0 1 277.75 248.24
  L 284.58 209.76"
/>
<path stroke="#fd93ad" vector-effect="non-scaling-stroke" d="
  M 284.58 209.76
  Q 288.92 215.74 295.15 217.05
  C 301.72 218.43 307.78 215.13 310.63 209.31
  Q 314.96 200.48 309.49 191.77
  A 0.30 0.30 0.0 0 1 309.71 191.31
  Q 322.75 189.73 324.68 178.26
  C 326.62 166.73 315.82 160.79 306.01 162.70
  A 0.67 0.67 0.0 0 1 305.28 161.75
  C 309.21 153.56 303.28 144.64 295.47 142.10
  Q 291.94 140.95 287.04 142.00
  C 280.72 143.37 276.90 149.81 276.60 156.01
  A 0.24 0.24 0.0 0 1 276.22 156.19
  C 269.76 151.30 259.51 151.80 254.97 158.63
  Q 249.20 167.32 253.57 175.81
  C 254.50 177.62 256.31 179.60 258.18 181.67
  A 0.56 0.56 0.0 0 1 258.14 182.47
  C 248.74 190.82 249.29 204.14 261.10 209.64
  Q 268.05 212.87 276.92 207.67"
/>
<path stroke="#887448" vector-effect="non-scaling-stroke" d="
  M 284.58 209.76
  L 282.27 205.05
  A 1.21 1.21 0.0 0 0 280.39 204.67
  L 276.92 207.67"
/>
<path stroke="#fe7b3b" vector-effect="non-scaling-stroke" d="
  M 283.6170 167.9313
  A 12.17 11.61 -103.8 0 0 275.2451 182.5194
  A 12.17 11.61 -103.8 0 0 289.4230 191.5687
  A 12.17 11.61 -103.8 0 0 297.7949 176.9806
  A 12.17 11.61 -103.8 0 0 283.6170 167.9313"
/>
</g>
<path fill="#007efe" d="
  M 308.27 123.57
  Q 281.85 118.02 255.53 112.86
  Q 249.86 111.75 247.68 112.20
  C 241.82 113.42 237.53 116.74 236.40 123.22
  Q 229.05 165.04 220.30 205.06
  C 218.25 214.41 216.89 222.14 214.65 232.58
  Q 208.79 259.90 207.83 266.27
  Q 207.00 271.73 212.17 276.64
  Q 127.92 276.68 44.01 276.61
  Q 43.99 276.61 39.49 276.72
  C 25.48 277.06 13.61 269.32 8.96 256.05
  Q 7.72 252.51 7.68 243.69
  Q 7.39 184.59 6.80 125.76
  Q 6.71 117.08 6.76 98.70
  C 6.79 90.92 7.67 85.71 11.96 80.09
  C 14.90 76.25 21.46 72.46 24.80 69.56
  Q 25.95 68.57 29.67 64.83
  Q 35.52 60.12 40.75 59.96
  Q 52.77 59.59 90.53 59.70
  L 101.51 59.54
  A 6.08 6.05 -56.5 0 0 103.80 59.07
  C 109.22 56.81 112.39 53.37 114.73 47.07
  Q 115.90 43.91 118.12 39.48
  C 121.00 33.70 124.27 26.28 126.31 20.95
  C 128.91 14.13 133.53 10.15 139.90 7.76
  Q 143.28 6.49 151.21 6.75
  Q 154.87 6.87 195.18 6.57
  Q 204.24 6.51 207.75 7.97
  C 214.33 10.72 218.17 14.68 221.02 21.95
  Q 222.17 24.89 233.93 49.34
  C 237.80 57.37 243.56 58.84 252.58 58.66
  Q 253.03 58.65 279.67 58.67
  C 290.13 58.68 297.10 60.04 303.23 67.80
  C 308.19 74.06 308.05 79.00 308.12 88.12
  Q 308.25 105.74 308.27 123.57
  Z
  M 78.85 204.95
  C 83.69 212.84 89.73 220.52 96.98 225.61
  C 105.56 231.65 115.27 236.91 125.71 238.82
  Q 138.26 241.10 148.49 239.99
  Q 171.90 237.44 189.59 221.13
  Q 192.41 218.53 197.53 212.08
  Q 202.67 205.60 204.47 202.25
  Q 208.41 194.96 211.02 186.68
  Q 213.88 177.63 214.40 170.15
  Q 215.53 154.10 211.54 141.18
  Q 202.94 113.28 177.24 98.58
  C 153.04 84.75 124.62 86.80 101.40 101.85
  C 66.79 124.28 57.77 170.55 78.85 204.95
  Z"
/>
<path fill="#fd3574" d="
  M 90.53 59.70
  Q 52.77 59.59 40.75 59.96
  Q 35.52 60.12 29.67 64.83
  C 28.37 58.57 29.31 51.11 29.18 46.20
  Q 29.05 40.73 30.44 38.00
  C 33.91 31.25 39.37 29.62 47.19 29.97
  Q 47.99 30.01 77.75 29.97
  C 83.15 29.96 87.39 33.32 89.76 37.79
  Q 91.01 40.16 90.87 46.88
  Q 90.73 53.15 90.53 59.70
  Z"
/>
<path fill="#fafafb" d="
  M 96.98 225.61
  C 89.73 220.52 83.69 212.84 78.85 204.95
  C 57.77 170.55 66.79 124.28 101.40 101.85
  C 124.62 86.80 153.04 84.75 177.24 98.58
  Q 202.94 113.28 211.54 141.18
  Q 215.53 154.10 214.40 170.15
  Q 213.88 177.63 211.02 186.68
  Q 208.41 194.96 204.47 202.25
  Q 202.67 205.60 197.53 212.08
  Q 192.41 218.53 189.59 221.13
  Q 171.90 237.44 148.49 239.99
  Q 138.26 241.10 125.71 238.82
  C 115.27 236.91 105.56 231.65 96.98 225.61
  Z
  M 134.2074 112.5860
  A 52.76 52.57 -97.2 0 0 88.6645 171.5188
  A 52.76 52.57 -97.2 0 0 147.4326 217.2740
  A 52.76 52.57 -97.2 0 0 192.9755 158.3412
  A 52.76 52.57 -97.2 0 0 134.2074 112.5860
  Z"
/>
<path fill="#1c2b5b" d="
  M 134.2074 112.5860
  A 52.76 52.57 -97.2 0 1 192.9755 158.3412
  A 52.76 52.57 -97.2 0 1 147.4326 217.2740
  A 52.76 52.57 -97.2 0 1 88.6645 171.5188
  A 52.76 52.57 -97.2 0 1 134.2074 112.5860
  Z
  M 122.8866 134.8873
  A 14.28 14.10 -102.1 0 0 112.0933 151.8056
  A 14.28 14.10 -102.1 0 0 128.8734 162.8127
  A 14.28 14.10 -102.1 0 0 139.6667 145.8944
  A 14.28 14.10 -102.1 0 0 122.8866 134.8873
  Z"
/>
<path fill="#fcf1e5" d="
  M 308.27 123.57
  Q 328.81 127.08 348.00 132.83
  L 348.00 190.24
  Q 347.23 196.60 346.85 198.61
  Q 344.84 209.20 330.34 284.83
  C 328.76 293.08 325.53 298.61 316.19 298.47
  Q 311.25 298.40 307.27 297.52
  Q 266.86 288.63 227.24 280.37
  Q 223.53 279.59 219.68 278.59
  Q 215.84 277.59 212.17 276.64
  Q 207.00 271.73 207.83 266.27
  Q 208.79 259.90 214.65 232.58
  C 216.89 222.14 218.25 214.41 220.30 205.06
  Q 229.05 165.04 236.40 123.22
  C 237.53 116.74 241.82 113.42 247.68 112.20
  Q 249.86 111.75 255.53 112.86
  Q 281.85 118.02 308.27 123.57
  Z
  M 276.92 207.67
  L 269.76 245.95
  A 0.50 0.50 0.0 0 1 268.80 246.05
  Q 263.40 232.46 251.40 225.36
  Q 247.00 222.75 242.21 223.01
  C 238.25 223.22 236.41 224.90 235.30 228.52
  C 232.87 236.48 235.32 242.32 239.95 249.06
  C 245.14 256.62 254.50 260.82 263.31 262.58
  C 263.90 262.70 265.25 262.51 266.01 262.76
  A 0.65 0.65 0.0 0 1 266.45 263.47
  C 266.05 266.12 264.09 270.65 266.72 272.96
  C 269.02 274.97 272.38 273.47 273.08 270.81
  Q 273.51 269.16 274.10 265.20
  A 0.79 0.79 0.0 0 1 275.18 264.59
  C 287.80 269.70 304.33 265.52 313.35 255.34
  C 318.19 249.87 321.04 238.88 311.36 236.10
  C 300.44 232.96 288.44 238.38 280.98 246.24
  Q 279.53 247.77 278.38 248.63
  A 0.40 0.40 0.0 0 1 277.75 248.24
  L 284.58 209.76
  Q 288.92 215.74 295.15 217.05
  C 301.72 218.43 307.78 215.13 310.63 209.31
  Q 314.96 200.48 309.49 191.77
  A 0.30 0.30 0.0 0 1 309.71 191.31
  Q 322.75 189.73 324.68 178.26
  C 326.62 166.73 315.82 160.79 306.01 162.70
  A 0.67 0.67 0.0 0 1 305.28 161.75
  C 309.21 153.56 303.28 144.64 295.47 142.10
  Q 291.94 140.95 287.04 142.00
  C 280.72 143.37 276.90 149.81 276.60 156.01
  A 0.24 0.24 0.0 0 1 276.22 156.19
  C 269.76 151.30 259.51 151.80 254.97 158.63
  Q 249.20 167.32 253.57 175.81
  C 254.50 177.62 256.31 179.60 258.18 181.67
  A 0.56 0.56 0.0 0 1 258.14 182.47
  C 248.74 190.82 249.29 204.14 261.10 209.64
  Q 268.05 212.87 276.92 207.67
  Z"
/>
<ellipse fill="#fafafb" cx="0.00" cy="0.00" transform="translate(125.88,148.85) rotate(-102.1)" rx="14.28" ry="14.10"/>
<path fill="#fd3574" d="
  M 284.58 209.76
  L 282.27 205.05
  A 1.21 1.21 0.0 0 0 280.39 204.67
  L 276.92 207.67
  Q 268.05 212.87 261.10 209.64
  C 249.29 204.14 248.74 190.82 258.14 182.47
  A 0.56 0.56 0.0 0 0 258.18 181.67
  C 256.31 179.60 254.50 177.62 253.57 175.81
  Q 249.20 167.32 254.97 158.63
  C 259.51 151.80 269.76 151.30 276.22 156.19
  A 0.24 0.24 0.0 0 0 276.60 156.01
  C 276.90 149.81 280.72 143.37 287.04 142.00
  Q 291.94 140.95 295.47 142.10
  C 303.28 144.64 309.21 153.56 305.28 161.75
  A 0.67 0.67 0.0 0 0 306.01 162.70
  C 315.82 160.79 326.62 166.73 324.68 178.26
  Q 322.75 189.73 309.71 191.31
  A 0.30 0.30 0.0 0 0 309.49 191.77
  Q 314.96 200.48 310.63 209.31
  C 307.78 215.13 301.72 218.43 295.15 217.05
  Q 288.92 215.74 284.58 209.76
  Z
  M 283.6170 167.9313
  A 12.17 11.61 -103.8 0 0 275.2451 182.5194
  A 12.17 11.61 -103.8 0 0 289.4230 191.5687
  A 12.17 11.61 -103.8 0 0 297.7949 176.9806
  A 12.17 11.61 -103.8 0 0 283.6170 167.9313
  Z"
/>
<ellipse fill="#fec101" cx="0.00" cy="0.00" transform="translate(286.52,179.75) rotate(-103.8)" rx="12.17" ry="11.61"/>
<path fill="#12b31c" d="
  M 284.58 209.76
  L 277.75 248.24
  A 0.40 0.40 0.0 0 0 278.38 248.63
  Q 279.53 247.77 280.98 246.24
  C 288.44 238.38 300.44 232.96 311.36 236.10
  C 321.04 238.88 318.19 249.87 313.35 255.34
  C 304.33 265.52 287.80 269.70 275.18 264.59
  A 0.79 0.79 0.0 0 0 274.10 265.20
  Q 273.51 269.16 273.08 270.81
  C 272.38 273.47 269.02 274.97 266.72 272.96
  C 264.09 270.65 266.05 266.12 266.45 263.47
  A 0.65 0.65 0.0 0 0 266.01 262.76
  C 265.25 262.51 263.90 262.70 263.31 262.58
  C 254.50 260.82 245.14 256.62 239.95 249.06
  C 235.32 242.32 232.87 236.48 235.30 228.52
  C 236.41 224.90 238.25 223.22 242.21 223.01
  Q 247.00 222.75 251.40 225.36
  Q 263.40 232.46 268.80 246.05
  A 0.50 0.50 0.0 0 0 269.76 245.95
  L 276.92 207.67
  L 280.39 204.67
  A 1.21 1.21 0.0 0 1 282.27 205.05
  L 284.58 209.76
  Z"
/>
</svg>
